assets/Clinking beer mugs/Flat/clinking_beer_mugs_flat.svg

<svg width="32" height="32" viewBox="0 0 32 32" fill="none" xmlns="http://www.w3.org/2000/svg">
<path fill-rule="evenodd" clip-rule="evenodd" d="M22.663 8.00988C21.4912 8.16887 20.6702 9.24765 20.8292 10.4194L21.4049 14.6627C21.5639 15.8345 22.6427 16.6555 23.8145 16.4965L28.0578 15.9207C29.2295 15.7617 30.0505 14.683 29.8916 13.5112L29.3158 9.2679C29.1568 8.09614 28.078 7.27513 26.9063 7.43412L22.663 8.00988ZM22.6478 10.1727C22.625 10.0053 22.7423 9.85115 22.9097 9.82844L27.153 9.25268C27.3204 9.22997 27.4745 9.34726 27.4972 9.51465L28.073 13.758C28.0957 13.9253 27.9784 14.0795 27.811 14.1022L23.5677 14.6779C23.4003 14.7006 23.2462 14.5834 23.2235 14.416L22.6478 10.1727Z" fill="#83CBFF"/>
<path fill-rule="evenodd" clip-rule="evenodd" d="M9.24047 17.2063C10.4122 17.3653 11.2332 18.4441 11.0742 19.6159L10.4985 23.8592C10.3395 25.0309 9.26072 25.8519 8.08896 25.693L3.84566 25.1172C2.6739 24.9582 1.85289 23.8794 2.01188 22.7077L2.58764 18.4644C2.74663 17.2926 3.82541 16.4716 4.99716 16.6306L9.24047 17.2063ZM9.25568 19.3691C9.2784 19.2017 9.16111 19.0476 8.99372 19.0249L4.75041 18.4492C4.58302 18.4264 4.42891 18.5437 4.40619 18.7111L3.83044 22.9544C3.80773 23.1218 3.92502 23.2759 4.09241 23.2986L8.33571 23.8744C8.50311 23.8971 8.65722 23.7798 8.67993 23.6124L9.25568 19.3691Z" fill="#83CBFF"/>
<path d="M14.1323 15.6577L13.1031 8.07229L19.0004 6.03741L25.2268 6.42728L26.7304 17.3726C26.8661 18.3728 26.1406 19.3047 25.1162 19.4437L18.3823 20.3574L17.316 28.2166C17.1794 29.2228 16.2327 29.9216 15.2082 29.7826L6.78828 28.6402C5.76383 28.5012 5.03833 27.5693 5.17404 26.5691L6.67768 15.6238L12.904 15.2339L14.1323 15.6577Z" fill="#AEDDFF"/>
<path d="M18.8013 17.2687L15.4273 16.1046L14.3156 7.91153L19.073 6.64487L24.0146 6.59552L25.5082 17.6032C25.5462 17.8837 25.3464 18.1406 25.0598 18.1795L18.558 19.0617L18.8013 17.2687Z" fill="#F9C23C"/>
<path d="M17.5888 17.108L16.0952 28.1157C16.0572 28.3962 15.7961 28.5906 15.5095 28.5517L6.8446 27.376C6.55805 27.3371 6.35819 27.0802 6.39625 26.7997L7.88982 15.792L12.8314 15.8414L17.5888 17.108Z" fill="#F9C23C"/>
<path d="M22.2989 16.7021C21.9655 16.7473 21.6569 16.5199 21.613 16.1968L20.7855 10.0977C20.7416 9.77452 20.9785 9.47309 21.3119 9.42785C21.6453 9.38262 21.954 9.61001 21.9979 9.93318L22.8254 16.0323C22.8693 16.3554 22.6324 16.6569 22.2989 16.7021Z" fill="#FCD53F"/>
<path d="M18.6618 17.1956C18.3284 17.2408 18.0198 17.0134 17.9759 16.6903L17.1484 10.5912C17.1045 10.268 17.3414 9.9666 17.6748 9.92136C18.0082 9.87612 18.3169 10.1035 18.3607 10.4267L19.1883 16.5258C19.2321 16.8489 18.9952 17.1504 18.6618 17.1956Z" fill="#FCD53F"/>
<path d="M9.60444 25.8986C9.93784 25.9438 10.2465 25.7164 10.2904 25.3932L11.1179 19.2942C11.1618 18.971 10.9249 18.6696 10.5914 18.6243C10.258 18.5791 9.94939 18.8065 9.90554 19.1297L9.07798 25.2287C9.03413 25.5519 9.27104 25.8533 9.60444 25.8986Z" fill="#FCD53F"/>
<path d="M13.2416 26.3921C13.575 26.4373 13.8836 26.2099 13.9275 25.8867L14.755 19.7877C14.7989 19.4645 14.562 19.1631 14.2286 19.1178C13.8952 19.0726 13.5865 19.3 13.5427 19.6232L12.7151 25.7222C12.6712 26.0454 12.9082 26.3468 13.2416 26.3921Z" fill="#FCD53F"/>
<path d="M22.7508 8.88091C23.0321 8.84275 23.2291 8.58384 23.191 8.30262C23.1528 8.0214 22.8939 7.82436 22.6127 7.86251C22.3314 7.90067 22.1344 8.15958 22.1726 8.4408C22.2107 8.72202 22.4696 8.91907 22.7508 8.88091Z" fill="#FF9F2E"/>
<path d="M23.4697 14.179C23.6639 14.1526 23.8 13.9739 23.7736 13.7797C23.7473 13.5855 23.5685 13.4495 23.3743 13.4758C23.1801 13.5022 23.0441 13.6809 23.0704 13.8751C23.0968 14.0693 23.2755 14.2053 23.4697 14.179Z" fill="#FF9F2E"/>
<path d="M19.6151 11.5226C19.8093 11.4963 19.9454 11.3175 19.919 11.1233C19.8927 10.9292 19.7139 10.7931 19.5197 10.8195C19.3255 10.8458 19.1895 11.0246 19.2158 11.2188C19.2422 11.4129 19.421 11.549 19.6151 11.5226Z" fill="#FF9F2E"/>
<path d="M9.15346 18.0774C8.87224 18.0392 8.6752 17.7803 8.71336 17.4991C8.75152 17.2179 9.01042 17.0208 9.29165 17.059C9.57287 17.0971 9.76991 17.3561 9.73175 17.6373C9.69359 17.9185 9.43469 18.1155 9.15346 18.0774Z" fill="#FF9F2E"/>
<path d="M8.43459 23.3755C8.24041 23.3491 8.10436 23.1703 8.13071 22.9762C8.15705 22.782 8.33582 22.6459 8.53 22.6723C8.72418 22.6986 8.86023 22.8774 8.83388 23.0716C8.80753 23.2657 8.62877 23.4018 8.43459 23.3755Z" fill="#FF9F2E"/>
<path d="M12.2892 20.7191C12.095 20.6928 11.9589 20.514 11.9853 20.3198C12.0116 20.1256 12.1904 19.9896 12.3846 20.0159C12.5788 20.0423 12.7148 20.2211 12.6885 20.4152C12.6621 20.6094 12.4834 20.7455 12.2892 20.7191Z" fill="#FF9F2E"/>
<path d="M19.7302 6.8645C19.5258 5.35796 20.5814 3.97095 22.0879 3.76653C23.5945 3.56212 24.9815 4.6177 25.1859 6.12424L25.227 6.42734L19.7713 7.16759L19.7302 6.8645Z" fill="#E6E6E6"/>
<path d="M13.0623 7.76922C12.8578 6.26268 13.9134 4.87567 15.42 4.67126C16.9265 4.46684 18.3135 5.52242 18.5179 7.02897L18.5591 7.33206L13.1034 8.07232L13.0623 7.76922Z" fill="#E6E6E6"/>
<path d="M16.4848 13.8677C17.9913 14.0721 19.0469 15.4592 18.8425 16.9657L18.8014 17.2688L13.3457 16.5285L13.3868 16.2254C13.5912 14.7189 14.9783 13.6633 16.4848 13.8677Z" fill="#E6E6E6"/>
<path d="M12.1745 16.061C12.379 14.5544 11.3234 13.1674 9.81682 12.963C8.31028 12.7586 6.92328 13.8142 6.71886 15.3207L6.67773 15.6238L12.1334 16.3641L12.1745 16.061Z" fill="#E6E6E6"/>
<path d="M22.0705 6.85563C22.113 6.55549 22.1154 6.24454 22.0726 5.92932C21.8227 4.08799 20.1275 2.79783 18.2862 3.04767C16.4448 3.29751 15.1547 4.99274 15.4045 6.83407L15.8158 9.86501C15.9521 10.8694 16.8767 11.5731 17.8811 11.4368C18.8855 11.3005 19.5892 10.3759 19.4529 9.3715L19.2995 8.24077C19.2252 7.6935 19.6087 7.18965 20.1559 7.1154L22.0705 6.85563Z" fill="#F4F4F4"/>
<path d="M9.83385 16.0521C9.79132 15.752 9.78896 15.441 9.83173 15.1258C10.0816 13.2845 11.7768 11.9943 13.6181 12.2441C15.4595 12.494 16.7496 14.1892 16.4998 16.0305L16.0885 19.0615C15.9522 20.0658 15.0276 20.7696 14.0232 20.6333C13.0189 20.497 12.3151 19.5723 12.4514 18.568L12.6048 17.4372C12.6791 16.89 12.2956 16.3861 11.7484 16.3119L9.83385 16.0521Z" fill="#F4F4F4"/>
<path d="M8.98924 7.01C8.98924 7.56781 8.53705 8.02 7.97924 8.02C7.42143 8.02 6.96924 7.56781 6.96924 7.01C6.96924 6.45219 7.42143 6 7.97924 6C8.53705 6 8.98924 6.45219 8.98924 7.01Z" fill="#E6E6E6"/>
<path d="M11.9992 9.99999C11.9992 10.5578 11.5471 11.01 10.9892 11.01C10.4314 11.01 9.97925 10.5578 9.97925 9.99999C9.97925 9.44218 10.4314 8.98999 10.9892 8.98999C11.5471 8.98999 11.9992 9.44218 11.9992 9.99999Z" fill="#E6E6E6"/>
</svg>

<svg xmlns="http://www.w3.org/2000/svg" width="32" height="32" fill="none"><path fill="#83CBFF" fill-rule="evenodd" d="M22.663 8.01a2.141 2.141 0 0 0-1.834 2.41l.576 4.243a2.141 2.141 0 0 0 2.41 1.834l4.243-.576a2.141 2.141 0 0 0 1.834-2.41l-.576-4.243a2.141 2.141 0 0 0-2.41-1.834l-4.243.576Zm-.015 2.163a.306.306 0 0 1 .262-.345l4.243-.575a.306.306 0 0 1 .344.262l.576 4.243a.306.306 0 0 1-.262.344l-4.243.576a.306.306 0 0 1-.345-.262l-.575-4.243ZM9.24 17.206a2.141 2.141 0 0 1 1.834 2.41l-.575 4.243a2.141 2.141 0 0 1-2.41 1.834l-4.243-.576a2.141 2.141 0 0 1-1.834-2.41l.576-4.243a2.141 2.141 0 0 1 2.41-1.833l4.242.575Zm.016 2.163a.306.306 0 0 0-.262-.344l-4.244-.576a.306.306 0 0 0-.344.262l-.576 4.243a.306.306 0 0 0 .262.345l4.244.575a.306.306 0 0 0 .344-.262l.576-4.243Z" clip-rule="evenodd"/><path fill="#AEDDFF" d="m14.132 15.658-1.029-7.586L19 6.037l6.227.39 1.503 10.946c.136 1-.59 1.932-1.614 2.07l-6.734.914-1.066 7.86c-.137 1.006-1.083 1.705-2.108 1.566l-8.42-1.143c-1.024-.139-1.75-1.07-1.614-2.07l1.504-10.946 6.226-.39 1.228.424Z"/><path fill="#F9C23C" d="m18.801 17.269-3.374-1.164-1.111-8.193 4.757-1.267 4.942-.05 1.493 11.008a.515.515 0 0 1-.448.576l-6.502.883.243-1.793Z"/><path fill="#F9C23C" d="m17.589 17.108-1.494 11.008a.515.515 0 0 1-.585.436l-8.665-1.176a.515.515 0 0 1-.449-.576L7.89 15.792l4.941.05 4.758 1.266Z"/><path fill="#FCD53F" d="M22.299 16.702a.604.604 0 0 1-.686-.505l-.828-6.1a.604.604 0 0 1 .527-.67.604.604 0 0 1 .686.506l.827 6.1a.604.604 0 0 1-.526.67ZM18.662 17.196a.604.604 0 0 1-.686-.506l-.828-6.099a.604.604 0 0 1 .527-.67.604.604 0 0 1 .686.506l.827 6.099a.604.604 0 0 1-.526.67ZM9.604 25.899a.604.604 0 0 0 .686-.506l.828-6.099a.604.604 0 0 0-.527-.67.604.604 0 0 0-.685.506l-.828 6.099a.604.604 0 0 0 .526.67ZM13.242 26.392a.604.604 0 0 0 .685-.505l.828-6.1a.604.604 0 0 0-.526-.67.604.604 0 0 0-.686.506l-.828 6.1a.604.604 0 0 0 .527.67Z"/><path fill="#FF9F2E" d="M22.75 8.88a.514.514 0 1 0-.137-1.018.514.514 0 0 0 .138 1.019ZM23.47 14.179a.355.355 0 1 0-.096-.703.355.355 0 0 0 .096.703ZM19.615 11.523a.355.355 0 1 0-.095-.703.355.355 0 0 0 .095.703ZM9.153 18.077a.514.514 0 1 1 .139-1.018.514.514 0 0 1-.139 1.018ZM8.435 23.375a.355.355 0 1 1 .095-.703.355.355 0 0 1-.095.703ZM12.29 20.72a.355.355 0 1 1 .094-.704.355.355 0 0 1-.095.703Z"/><path fill="#E6E6E6" d="M19.73 6.864a2.753 2.753 0 0 1 5.456-.74l.041.303-5.456.74-.04-.303ZM13.062 7.77a2.753 2.753 0 1 1 5.456-.741l.041.303-5.456.74-.04-.303ZM16.485 13.868a2.753 2.753 0 0 1 2.358 3.098l-.042.303-5.455-.74.04-.304a2.753 2.753 0 0 1 3.099-2.357ZM12.175 16.061a2.753 2.753 0 1 0-5.456-.74l-.041.303 5.455.74.042-.303Z"/><path fill="#F4F4F4" d="M22.07 6.856a3.367 3.367 0 0 0-3.784-3.808 3.365 3.365 0 0 0-2.882 3.786l.412 3.031a1.835 1.835 0 1 0 3.637-.494l-.154-1.13a1 1 0 0 1 .857-1.126l1.915-.26ZM9.834 16.052a3.367 3.367 0 0 1 3.784-3.808 3.365 3.365 0 0 1 2.882 3.787l-.412 3.03a1.835 1.835 0 0 1-3.637-.493l.154-1.13a1 1 0 0 0-.857-1.126l-1.914-.26Z"/><path fill="#E6E6E6" d="M8.99 7.01a1.01 1.01 0 1 1-2.02 0 1.01 1.01 0 0 1 2.02 0ZM12 10a1.01 1.01 0 1 1-2.02 0A1.01 1.01 0 0 1 12 10Z"/></svg>
